static/pic/website.svg

<?xml version="1.0" encoding="UTF-8"?>
<svg width="39px" height="39px" viewBox="0 0 39 39" version="1.1" xmlns="http://www.w3.org/2000/svg" xmlns:xlink="http://www.w3.org/1999/xlink">
    <!-- Generator: Sketch 39.1 (31720) - http://www.bohemiancoding.com/sketch -->
    <title>website</title>
    <desc>Created with Sketch.</desc>
    <defs></defs>
    <g id="Page-1" stroke="none" stroke-width="1" fill="none" fill-rule="evenodd">
        <g id="user" transform="translate(-341.000000, -396.000000)" stroke="#FFFFFF" stroke-width="2">
            <g id="website" transform="translate(342.000000, 397.000000)">
                <circle id="Oval" cx="18.2987334" cy="18.2987334" r="18.2987334"></circle>
                <path d="M6.41977642,6.77852487 C6.41977642,6.77852487 3.97367156,12.3932409 6.93476294,11.3480162 C9.12288778,10.5758609 9.31596716,9.67520237 9.31596716,9.67520237 L10.6027845,7.4225014 C10.6027845,7.4225014 10.7958638,10.5758609 11.0533571,11.0259468 C11.3108504,11.4768439 12.3404989,12.7639857 12.7264954,10.9618574 C13.4360216,7.64916686 13.555601,6.71540901 14.7783289,6.71540901 C16.0010568,6.71540901 18.5182279,5.74903859 18.7758834,8.7093187 C19.0333767,11.6697611 18.5185524,9.93188437 16.9096657,10.7045264 C15.3006168,11.4766817 14.914458,14.1796308 16.3946792,14.5012134 C17.3047483,14.6991604 18.9199628,15.2860243 20.0294391,15.708852 C23.6233117,17.0784176 23.7310467,21.0412502 23.7310467,24.5403678 C23.7310467,24.5403678 23.7956229,28.5948726 25.2756818,27.629638 C26.7555785,26.6644033 30.809921,20.3573598 29.9733519,17.9764801 C29.1367827,15.5952759 29.0726933,15.3377826 30.6170039,14.5012134 C32.1613144,13.6646443 33.2553769,12.6349957 33.190963,11.4766817" id="Shape"></path>
                <path d="M3.28231572,21.8853197 C3.28231572,21.8853197 3.73288837,16.7782889 4.76253691,17.5939276 C5.79218545,18.4102153 6.24227134,18.4102153 7.14341662,19.3113606 C8.04456191,20.2120191 11.9056628,20.7270056 10.618521,21.8853197 C9.33154146,23.0439582 8.83683639,22.9769483 7.08046301,28.1276248" id="Shape"></path>
            </g>
        </g>
    </g>
</svg>

<svg width="39" height="39" viewBox="0 0 39 39" xmlns="http://www.w3.org/2000/svg"><title>website</title><g fill="none" fill-rule="evenodd"><g transform="translate(-341 -396)" stroke="#FFF" stroke-width="2"><g transform="translate(342 397)"><circle cx="18.299" cy="18.299" r="18.299"/><path d="M6.42 6.779s-2.446 5.614.515 4.569c2.188-.772 2.381-1.673 2.381-1.673l1.287-2.252s.193 3.153.45 3.603c.258.45 1.287 1.738 1.673-.064.71-3.313.83-4.247 2.052-4.247 1.223 0 3.74-.966 3.998 1.994.257 2.96-.257 1.223-1.866 1.996-1.61.772-1.996 3.475-.515 3.796.91.198 2.525.785 3.634 1.208 3.594 1.37 3.702 5.332 3.702 8.831 0 0 .065 4.055 1.545 3.09 1.48-.966 5.534-7.273 4.697-9.654-.836-2.38-.9-2.638.644-3.475 1.544-.836 2.638-1.866 2.574-3.024M3.282 21.885s.45-5.107 1.48-4.291c1.03.816 1.48.816 2.381 1.717.902.901 4.763 1.416 3.476 2.574-1.287 1.159-1.782 1.092-3.539 6.243"/></g></g></g></svg>
